X:1
T:Oh, Come Today
T:Oh, Come Today
T:Hubert Platt Main
T:Frances Jane (Fanny) Crosby, 1908
T:Public Domain Courtesy of the Cyber Hymnal™
T:Public Domain Courtesy of the Cyber Hymnal™
C:Hubert Platt Main
Z:Public Domain
Z:Courtesy of the Cyber Hymnal™
%%score ( 1 2 ) ( 3 4 )
L:1/8
Q:1/4=105
M:6/8
K:Ab
V:1 treble 
V:2 treble 
V:3 bass 
V:4 bass 
V:1
 [CE]2 [Ec] [Ec]2 [Fd] | ([Fd][Ec])[CB] [CE]2 C | [DE]3 [DE]2 [DF] | [CE]3 [CA]2 z | %4
w: 1.~Come to Him who|still * is plead- ing,|Haste to re-|ceive Him;|
w: 2.~While the lamp of|life * is burn- ing,|Speed to the|mount- ain;|
w: 3.~While the dews of|grace * are fall- ing,|Soft- ly and|ten- der,|
w: 4.~Still we hear that|voice * re- peat- ing,|“O ye that|sor- row,|
 [CE]2 [Ec] [Ec]2 [Fd] | ([Fd][Ec])[CB] [CE]2 [EF] | [EG]2 [Ec] [=DB]2 [DF] | (G2 F) [DE]2 z | %8
w: While He yet is|in- * ter- ced- ing,|Can you slight and|grieve * Him?|
w: While for rest your|soul * is yearn- ing,|Seek the pre- cious|fount- * ain.|
w: While His voice a-|gain * is call- ing,|All to Him sur-|ren- * der.|
w: Time is brief, the|hours * are fleet- ing,|Stay not til the|mor- * row.”|
 [Cc]2 [Ec] [Ac]2 [_Ge] | (ed)[=Fc] (B=F)[_FB] | [EA]2 [=DA] (AB)[=DG] | [CA]3- [CA]2 z || %12
w: While His love your|heart * is lead- * ing,|There is joy * for|you. *|
w: He who longs for|your * re- turn- * ing,|Sheds His blood * for|you. *|
w: On the cross with|grief * ap- pal- * ling|Once He died * for|you. *|
w: Come and share the|Mas- * ter’s greet- * ing,|Lo! He waits * for|you. *|
"^Refrain" [EB]3 c3 | [Fd]3- [Fd]2 z | [FA]3 B3 | c3- [Ec]2 z | [CE]2 [Ec] [Ac]2 [_Ge] | %17
w: |||||
w: Come, oh,|come, *|Come, oh,|come, No|* one else but|
w: |||||
w: |||||
 (ed)[=Fc] (B=F)[_FB] | [EA]2 [=DA] (AB)[=DG] | [CA]3- [CA]2 z |] %20
w: |||
w: He * can save * you,|He the Truth, * the|Way. *|
w: |||
w: |||
V:2
 x6 | x5 C | x6 | x6 | x6 | x6 | x6 | D3 x3 | x6 | _F2 _F2 x2 | x3 _D2 x | x6 || x3 (E2 _G) | x6 | %14
 x3 (F2 _F) | E2 E x3 | x6 | _F2 _F2 x2 | x3 _D2 x | x6 |] %20
V:3
 [A,,A,]2 [A,,A,] [A,,A,]2 [A,,A,] | [A,,A,]2 [A,,E,] [A,,A,]2 [A,,E,] | [B,,G,]3 [E,G,]2 [E,G,] | %3
 [A,,A,]3 [A,,E,]2 z | [A,,A,]2 [A,,A,] [A,,A,]2 [A,,A,] | [A,,A,]2 [A,,E,] [A,,A,]2 [_C,=A,] | %6
 [B,,B,]2 [B,,G,] [B,,A,]2 [B,,B,] | B,2 A, [E,G,]2 z | A,2 [A,C] [A,E]2 [A,C] | %9
 [D,A,]2 [D,A,] [D,D]2 [D,B,] | [E,C]2 [E,_C] [E,B,]2 [E,B,] | [A,,A,]3- [A,,A,]2 z || %12
 [E,G,]3 A,3 | ([D,A,]2 [D,A,] [D,A,]2) z | [D,A,]3 (A,2 G,) | ([A,,A,]2 [A,,A,] [A,,A,]2) z | %16
 A,2 [A,C] [A,E]2 [A,C] | [D,A,]2 [D,A,] [D,D]2 [D,B,] | [E,C]2 [E,_C] [E,B,]2 [E,B,] | %19
 [A,,A,]3- [A,,A,]2 z |] %20
V:4
 x6 | x6 | x6 | x6 | x6 | x6 | x6 | E,3 x3 | A,2 x4 | x6 | x6 | x6 || x3 A,3 | x6 | x3 D,3 | x6 | %16
 A,2 x4 | x6 | x6 | x6 |] %20

